storage/app/icons/phosphoricons/regular/sidebar.svg

<svg xmlns="http://www.w3.org/2000/svg" fill="currentColor" viewBox="0 0 256 256"><path d="M216 40H40a16 16 0 0 0-16 16v144a16 16 0 0 0 16 16h176a16 16 0 0 0 16-16V56a16 16 0 0 0-16-16M40 152h16a8 8 0 0 0 0-16H40v-16h16a8 8 0 0 0 0-16H40V88h16a8 8 0 0 0 0-16H40V56h40v144H40Zm176 48H96V56h120z"/></svg>

<svg xmlns="http://www.w3.org/2000/svg" viewBox="0 0 256 256" fill="currentColor"><path d="M216,40H40A16,16,0,0,0,24,56V200a16,16,0,0,0,16,16H216a16,16,0,0,0,16-16V56A16,16,0,0,0,216,40ZM40,152H56a8,8,0,0,0,0-16H40V120H56a8,8,0,0,0,0-16H40V88H56a8,8,0,0,0,0-16H40V56H80V200H40Zm176,48H96V56H216V200Z"/></svg>
